X: 305816
M: 2/4
L: 1/16
K: G
dBed c2AB | cAdc B2GA | BGcB AGFG | Ad^cd D2Bc |\
dBed c2AB | cAdc B2GE | Eedc BAGF | G2G2"^D.C."G2 |]
K: Gm
dc |\


